X:7
T:Polska från Västergötland
T:Svenska Folkdansar H2 nr 7
O:Västergötland
B:Traditioner av Svenska Folkdansar Häfte 2, nr 7
R:Polska
N:Frågetecknet över tonen i andra takten finns inte i originalet.
Z:Nils L
M:3/4
L:1/8
K:Em
d2 {e/}d^c/d/ ed | d^c {c/}"^B\#?"^AB/c/ B2 | G2 {A/}GF/G/ (AG) | FE ^DE/F/ E2 ::
E>F G2 B2 | B>A F2 A2 | G2 {A/}GF/G/ (AG) | F>^D (EF/G/) F2 |
E>F G2 B2 | B>A F2 A2 | G2 {A/}GF/G/ (AG) | (F>^D) E2 z2 :|

